X:1
T:Rockbridge 
T:Lucius Chapin, 1813 C Major                                        Revised 1814 
T:Isaac Watts, 1719 Psalm 92, Part 1                          88. 88. (L. M.) 
T:Transcribed from The Beauties of Harmony, 1814.
%%score [ 1 2 3 4 ]
L:1/8
Q:1/4=120
M:4/4
K:C
V:1 treble nm="Tr." snm="Tr."
V:2 treble nm="C." snm="C."
V:3 treble-8 nm="T." snm="T."
V:4 bass nm="B." snm="B."
V:1
"_1. Sweet is the work, my God, my King,  To praise thy name, give thanks and sing;   To show thy love by morning   light,       And          talk   of   all  thy truth  at  night.\n2. Sweet is the  day  of    sacred   rest,       No  mortal  cares  shall  seize  my  breast;    O may my heart in  tune  be   found       Like         David's  harp of solemn  sound!\n" G4 E2 F2 | %1
 G4 c4 | B2 G2 G4- | G4 A4 | B2 GA B4 | c4 B2 c2 | d8 | d4 c2 d2 | e4 f4 | e2 d2 e4- | e4 g4 | %11
 c2 d2 d4 | c4 c2 B2 | c8 |] %14
V:2
"_3. My heart shall triumph in my Lord,    And bless his works, and bless his word;  Thy works of grace how bright they shine!   How      deep  thy  counsels! how divine!\n4. Fools never raise their thoughts so high; Like brutes they live, like brutes they die; Like grass they flourish, till  thy  breath   Blast      them  in   ev–er–las–ting  death.\n5. But  I  shall  share  a  glorious   part     When    grace  hath  well  refined  my heart, And fresh supplies of  joy  are    shed       Like       ho – ly     oil  to  cheer my head.\n" E4 E2 A2 | %1
 G4 F4 | E2 G2 G4- | G4 (c2 A2) | G2 G2 G4 | F4 E2 A2 | G8 | G4 E2 D2 | E4 F4 | E2 D2 E4- | %10
 E4 (D3 C) | C2 G2 A4 | G4 G2 G2 | G8 |] %14
V:3
"_6. Sin,  my  worst  enemy  be – fore,        Shall     vex   my  eyes   and  ears  no  more;  My inward foes shall  all  be    slain,      Nor            Sa – tan  break my peace again.\n7. Then shall I see, and hear, and know   All         I      desired      or wished  be – low;  And every power find sweet employ      In              that  e – ter – nal world  of joy.\n" c4 G2 A2 | %1
 c4 c4 | e2 d2 c4- | c4 c4 | e2 g2 e4 | c4 e2 dc | d8 | d4 e2 g2 | e4 c4 | e2 dc A4- | A4 (d3 e) | %11
 c2 AG A4 | c4 e2 d2 | c8 |] %14
V:4
"______________________________________________________________\nA folk hymn, based on a British folk tune (Jackson 1953b, No. 204).\nThis tune appeared in many publications, including \nKentucky Harmony\n   (1816), \nThe Missouri Harmony\n (1820), \nA Compilation of Genuine Church\n   Music\n (1835), \nSouthern and Western Pocket Harmonist\n (1846), and \nThe\n   Hesperian Harp\n (1848).\n" C,4 C,2 D,2 | %1
 C,4 F,4 | E,2 G,2 C,4- | C,4 F,4 | E,2 D,2 E,4 | F,4 E,2 F,2 | G,8 | G,4 C2 G,2 | C4 F,4 | %9
 E,2 G,2 A,4- | A,4 (G,3 E,) | F,2 D,2 D,4 | C,4 C,2 G,,2 | C,8 |] %14

